src/icons/outline/symbols/rating-star.svg

<svg width="24" height="24" viewBox="0 0 24 24" fill="none" xmlns="http://www.w3.org/2000/svg">
<g clip-path="url(#clip0_4879_278)">
<path fill-rule="evenodd" clip-rule="evenodd" d="M11.9883 1.00001L11.9911 1C12.3924 0.999765 12.7845 1.11822 13.1173 1.34017C13.4501 1.56212 13.7083 1.87744 13.8588 2.24567L13.8645 2.2598L15.7498 7.56745H20.9989C21.4093 7.57048 21.8088 7.69814 22.1435 7.93315C22.476 8.16657 22.7286 8.49474 22.8678 8.87384C23.0111 9.24469 23.0386 9.64962 22.9469 10.0363C22.8545 10.4255 22.6455 10.7781 22.3472 11.0477L22.3356 11.0581L17.8342 14.7586L19.7138 20.3322C19.8666 20.7363 19.8815 21.179 19.7561 21.5925C19.6292 22.0111 19.3656 22.3762 19.0066 22.6306C18.6477 22.8851 18.2136 23.0145 17.7724 22.9987C17.3387 22.9831 16.9222 22.828 16.5858 22.5573L11.9872 19.2218L7.38371 22.5671C7.38353 22.5672 7.3839 22.5669 7.38371 22.5671C7.0418 22.8162 6.62797 22.9513 6.20339 22.952C5.77858 22.9527 5.36464 22.8192 5.02179 22.5709C4.67894 22.3226 4.42508 21.9725 4.29714 21.5715C4.1694 21.1711 4.17386 20.7408 4.30987 20.3431C4.31007 20.3425 4.31027 20.3419 4.31047 20.3413L6.19317 14.7587L1.70547 11.0709C1.39831 10.8111 1.17724 10.4658 1.07094 10.08C0.964641 9.69412 0.978061 9.28554 1.10946 8.90734L1.11131 8.902C1.24855 8.51774 1.50252 8.1849 1.83836 7.94912C2.1742 7.71334 2.57549 7.58616 2.98721 7.58501L2.98908 7.58501L8.23376 7.58501L10.1216 2.31996C10.1218 2.31927 10.1221 2.31858 10.1223 2.31789C10.2576 1.93469 10.5094 1.60229 10.8431 1.36633C11.1774 1.12994 11.5775 1.00196 11.9883 1.00001ZM11.9933 2.31701C11.8581 2.31793 11.7264 2.36018 11.6164 2.43801C11.5059 2.5161 11.4226 2.62617 11.378 2.75305L11.3767 2.75678L9.43429 8.17404L9.43298 8.17766C9.35551 8.38977 9.2139 8.57311 9.02743 8.70272C8.84096 8.83233 8.61867 8.90191 8.39083 8.90201H2.9902C2.85322 8.90254 2.71974 8.94493 2.608 9.02338C2.49683 9.10143 2.41257 9.21139 2.36661 9.33836C2.32291 9.4659 2.31867 9.60347 2.35447 9.73344C2.39019 9.86307 2.4641 9.97919 2.56675 10.067L7.15514 13.8375C7.3264 13.9767 7.4516 14.1636 7.51457 14.3739C7.57785 14.5854 7.57533 14.8108 7.50733 15.0207L7.50489 15.0283L5.57132 20.7616L5.57023 20.7648C5.5247 20.8975 5.52314 21.0412 5.56579 21.1749C5.60843 21.3085 5.69305 21.4252 5.80733 21.508C5.92162 21.5908 6.0596 21.6353 6.2012 21.635C6.3428 21.6348 6.48063 21.5899 6.59464 21.5067L11.3292 18.0662C11.5192 17.9258 11.7499 17.8499 11.9871 17.8499C12.2241 17.8499 12.4547 17.9257 12.6446 18.0659L17.4036 21.5177L17.4193 21.5307C17.5324 21.6239 17.6736 21.6773 17.8207 21.6826C17.9677 21.6878 18.1124 21.6447 18.2321 21.5599C18.3517 21.4751 18.4396 21.3534 18.4819 21.2138C18.5242 21.0743 18.5186 20.9248 18.4659 20.7888L18.4607 20.7753L16.52 15.0208C16.452 14.8108 16.4495 14.5854 16.5128 14.3739C16.5758 14.1636 16.7009 13.9768 16.8722 13.8376C16.873 13.8369 16.8739 13.8362 16.8748 13.8354L21.4596 10.0664C21.5548 9.97693 21.6216 9.86177 21.6517 9.73504C21.6828 9.60414 21.6732 9.467 21.6242 9.3416L21.6212 9.33401L21.6184 9.32634C21.5718 9.19775 21.4865 9.08643 21.3739 9.0074C21.2619 8.92877 21.1283 8.88588 20.991 8.88445H15.5925C15.3646 8.88435 15.1421 8.81476 14.9556 8.68516C14.7691 8.55555 14.6275 8.37221 14.5501 8.1601L14.5481 8.15465L12.6205 2.72783C12.5689 2.60795 12.4833 2.50532 12.3739 2.43239C12.2614 2.35736 12.1289 2.3172 11.9933 2.31701Z" fill="#3C3B44"/>
</g>
<defs>
<clipPath id="clip0_4879_278">
<rect width="24" height="24" fill="white"/>
</clipPath>
</defs>
</svg>

<svg xmlns="http://www.w3.org/2000/svg" width="24" height="24" fill="none" viewBox="0 0 24 24"><g clip-path="url(#a)"><path fill="currentColor" fill-rule="evenodd" d="M11.988 1h.003c.401 0 .793.118 1.126.34s.591.537.742.906l.005.014 1.886 5.307h5.249c.41.003.81.131 1.145.366.332.234.585.562.724.94a1.965 1.965 0 0 1-.52 2.175l-.012.01-4.502 3.7 1.88 5.574a1.97 1.97 0 0 1-.708 2.299 2.01 2.01 0 0 1-2.42-.074l-4.599-3.335-4.603 3.345a2.01 2.01 0 0 1-2.362.004 1.98 1.98 0 0 1-.725-1c-.128-.4-.123-.83.013-1.228v-.002l1.883-5.582-4.488-3.688a1.97 1.97 0 0 1-.596-2.164l.002-.005a2 2 0 0 1 .727-.953 2 2 0 0 1 1.15-.364h5.246l1.888-5.265v-.002c.136-.383.387-.716.721-.952A2 2 0 0 1 11.988 1m.005 1.317a.66.66 0 0 0-.615.436l-.001.004-1.943 5.417-.001.004a1.1 1.1 0 0 1-1.042.724h-5.4a.67.67 0 0 0-.624.436.67.67 0 0 0 .2.729l4.588 3.77a1.1 1.1 0 0 1 .352 1.184l-.002.007-1.934 5.734v.003a.65.65 0 0 0 .236.743.67.67 0 0 0 .788-.001l4.734-3.44a1.11 1.11 0 0 1 1.316-.001l4.759 3.452.015.013a.67.67 0 0 0 1.063-.317.65.65 0 0 0-.016-.425l-.005-.014-1.941-5.754a1.09 1.09 0 0 1 .352-1.183l.003-.003 4.585-3.769a.67.67 0 0 0 .164-.724l-.003-.008-.003-.008a.67.67 0 0 0-.627-.442h-5.398c-.228 0-.45-.07-.637-.199a1.1 1.1 0 0 1-.406-.525l-.002-.005-1.928-5.427a.68.68 0 0 0-.627-.411" clip-rule="evenodd"/></g><defs><clipPath id="a"><path fill="currentColor" d="M0 0h24v24H0z"/></clipPath></defs></svg>
